source/images/logo/csharp.svg

<svg fill="none" height="81" viewBox="0 0 73 81" width="73" xmlns="http://www.w3.org/2000/svg" xmlns:xlink="http://www.w3.org/1999/xlink"><linearGradient id="a" gradientUnits="userSpaceOnUse" x1="50.0927" x2="70.294" y1="32.69" y2="58.5464"><stop offset="0" stop-color="#3b009b"/><stop offset="1" stop-color="#390086"/></linearGradient><linearGradient id="b" gradientUnits="userSpaceOnUse" x1="19.0115" x2="40.4885" y1="51.2562" y2="78.7454"><stop offset="0" stop-color="#340084"/><stop offset="1" stop-color="#290064"/></linearGradient><linearGradient id="c" gradientUnits="userSpaceOnUse" x1="19.9188" x2="41.8996" y1="8.99533" y2="37.1296"><stop offset="0" stop-color="#a47ede"/><stop offset="1" stop-color="#9866d3"/></linearGradient><mask id="d" height="81" maskUnits="userSpaceOnUse" width="73" x="0" y="0"><path clip-rule="evenodd" d="m69.0097 17.9771-29.3887-16.96753c-1.6928-.977605-4.4635-.977605-6.1564 0l-29.38866 16.96753c-1.69319.9773-3.078381 3.3768-3.078381 5.3319v33.9349c.131801 2.2768 1.294661 4.1624 3.078381 5.3317l29.38866 16.9676c1.6929.9776 4.4636.9776 6.1564 0l29.3887-16.9676c1.9138-1.2727 3.003-3.1886 3.0784-5.3317v-33.9349c-.0688-2.0571-1.3006-4.1317-3.0784-5.3319z" fill="#fff" fill-rule="evenodd"/></mask><g mask="url(#d)"><path d="m77.5734 19.752h-41.7912v42.733h41.7912z" fill="url(#a)"/><path d="m77.5683 64.0123-53.7822-31.1207h-27.46188v51.5192h81.24408z" fill="url(#b)"/><path d="m-3.67578 63.571 81.24408-47.0132v-18.54999h-81.24408z" fill="url(#c)"/><g fill="#fff"><path d="m12.8469 40.2809c-.1393-23.1388 30.8529-33.35607 44.218-11.856l-10.2555 5.9344c-6.1909-10.2397-21.5626-6.5782-22.1142 5.9214.1656 11.5201 15.274 16.8715 22.1149 5.9208l10.2554 5.9341c-11.7784 20.4473-43.6245 13.0907-44.2186-11.8547z"/><path d="m51.9353 33.5947h1.9531l-1.3345 12.8907h-1.9897z"/><path d="m56.1198 33.5947h1.9531l-1.3345 12.8907h-1.9899z"/><path d="m59.5086 36.6455h-9.7657v1.8863h9.7657z"/><path d="m58.961 41.1816h-9.7657v1.8863h9.7657z"/></g></g></svg>

<svg width="73" height="81" viewBox="0 0 73 81" fill="none" xmlns="http://www.w3.org/2000/svg">
<mask id="mask0" mask-type="alpha" maskUnits="userSpaceOnUse" x="0" y="0" width="73" height="81">
<path fill-rule="evenodd" clip-rule="evenodd" d="M69.0097 17.9771L39.621 1.00957C37.9282 0.031965 35.1575 0.031965 33.4646 1.00957L4.07594 17.9771C2.38275 18.9544 0.997559 21.3539 0.997559 23.309V57.2439C1.12936 59.5207 2.29222 61.4063 4.07594 62.5756L33.4646 79.5432C35.1575 80.5208 37.9282 80.5208 39.621 79.5432L69.0097 62.5756C70.9235 61.3029 72.0127 59.387 72.0881 57.2439V23.309C72.0193 21.2519 70.7875 19.1773 69.0097 17.9771Z" fill="white"/>
</mask>
<g mask="url(#mask0)">
<path d="M77.5734 19.752H35.7822V62.485H77.5734V19.752Z" fill="url(#paint0_linear)"/>
<path d="M77.5683 64.0123L23.7861 32.8916H-3.67578V84.4108H77.5683V64.0123Z" fill="url(#paint1_linear)"/>
<path d="M-3.67578 63.571L77.5683 16.5578V-1.99219H-3.67578V63.571Z" fill="url(#paint2_linear)"/>
<path d="M12.8469 40.2809C12.7076 17.1421 43.6998 6.92483 57.0649 28.4249L46.8094 34.3593C40.6185 24.1196 25.2468 27.7811 24.6952 40.2807C24.8608 51.8008 39.9692 57.1522 46.8101 46.2015L57.0655 52.1356C45.2871 72.5829 13.441 65.2263 12.8469 40.2809Z" fill="white"/>
<path d="M51.9353 33.5947H53.8884L52.5539 46.4854H50.5642L51.9353 33.5947Z" fill="white"/>
<path d="M56.1198 33.5947H58.0729L56.7384 46.4854H54.7485L56.1198 33.5947Z" fill="white"/>
<path d="M59.5086 36.6455H49.7429V38.5318H59.5086V36.6455Z" fill="white"/>
<path d="M58.961 41.1816H49.1953V43.0679H58.961V41.1816Z" fill="white"/>
</g>
<defs>
<linearGradient id="paint0_linear" x1="50.0927" y1="32.69" x2="70.294" y2="58.5464" gradientUnits="userSpaceOnUse">
<stop stop-color="#3B009B"/>
<stop offset="1" stop-color="#390086"/>
</linearGradient>
<linearGradient id="paint1_linear" x1="19.0115" y1="51.2562" x2="40.4885" y2="78.7454" gradientUnits="userSpaceOnUse">
<stop stop-color="#340084"/>
<stop offset="1" stop-color="#290064"/>
</linearGradient>
<linearGradient id="paint2_linear" x1="19.9188" y1="8.99533" x2="41.8996" y2="37.1296" gradientUnits="userSpaceOnUse">
<stop stop-color="#A47EDE"/>
<stop offset="1" stop-color="#9866D3"/>
</linearGradient>
</defs>
</svg>
